X:1
T:Amén
T:Amén
T:Pergolesi. Stabat Mater.
%%score { ( 1 2 ) | 3 | 4 }
L:1/8
Q:3/4=80
M:2/2
K:Ab
V:1 treble nm="Órgano de tubos" snm="Org."
V:2 treble 
V:3 bass 
V:4 bass-8 
V:1
 c8 | d8 | c8 | B8 | A4 B2 A2 | TG8 | f8 | a8 | g8 | f8 | e4 f2 e2 | c8 | e4 ((c'4 | c'4)) (b4 | %14
 b4) (a4 | a4) (g4 | g4) (f4 | f4) =e4 | f4 a4 | a4 g2 f2 | =e2 .a2 .f2 .a2 | .d2 .f2 .=B2 .=d2 | %22
 c6 f2 | =e2 =d2 c2 =B2 | c6 f2 | =e2 =d2 c2 =B2 | c8 | z2 z2 z2 z2 | (f8 | (f8) | (f8) | f8) | %32
 f2 _g2 f2 _e2 | _d2 c2 B2 =A2 | (b8 | (b8) | (b8) | b8) | b2 c'2 d'2 c'2 | b2 a2 g2 f2 | =e6 c'2 | %41
 b2 a2 g2 f2 | =e6 c'2 | b2 a2 g2 f2 | =e4 c4 | d4 b2 d2 | c4 a2 c2 | B4 g2 B2 | A4 f2 A2 | G8 | %50
 F2 a2 g2 a2 | f2 a2 c2 _e2 | d2 b2 a2 b2 | g2 b2 =d2 f2 | =e2 c2 f2 A2 | G2 f2 G2 =e2 | %56
 f2 a2 g2 a2 | f2 a2 c2 _e2 | d2 b2 a2 b2 | g2 b2 =d2 f2 | =e2 c2 f2 A2 | G2 f2 G2 =e2 | %62
 F2 a2 z2 g2 | z2 a2 z2 G2 | [Fcf]4 z4 |] z8 | z8 | z8 | z8 | z8 | z8 | z8 |] %72
V:2
 z2 z2 A2 F2 | B4 G2 E2 | A4 F2 D2 | G4 =E2 C2 | F2 _E2 D2 C2 | B,4 C4 | F4 C2 B,2 | A,4 f4 | %8
 f4 e4 | e4 (=d4 | =d4) (c4 | =B8) | c4 =e2 c2 | f4 b2 f2 | =e4 _e2 c2 | =d4 _d2 B2 | c4 d2 c2 | %17
 B8 | A4 c4 | c4 B2 A2 | B2 z2 z4 | x8 | c8 | c8 | c8 | c8 | c2 d2 c2 B2 | A2 G2 F2 =E2 | F6 B2 | %29
 =A2 G2 F2 =E2 | F6 B2 | =A2 G2 F2 =E2 | F4 z4 | x8 | B6 e2 | d2 c2 B2 =A2 | B6 e2 | d2 c2 B2 =A2 | %38
 B4 z4 | x8 | c8 | (c8 | (c8) | c8) | C4 ((c4 | c4)) (B4 | B4) (A4 | A4) (G4 | G4) (F4 | F4) =E4 | %50
 x8 | x8 | x8 | x8 | x8 | x8 | x8 | x8 | x8 | x8 | x8 | x8 | x8 | x8 | x8 |] x8 | x8 | x8 | x8 | %69
 x8 | x8 | x8 |] %72
V:3
 z4 z4 | z8 | z8 | z8 | z8 | z8 | z8 | z8 | z8 | z8 | z8 | z8 | C,8 | D,8 | C,8 | B,,8 | %16
 A,,4 B,,2 A,,2 | G,,8 | F,4 z4 | z8 | z8 | z8 | C,,2 C,2 B,,2 A,,2 | G,,2 F,,2 =E,,2 =D,,2 | %24
 C,,2 C,2 B,,2 A,,2 | G,,2 F,,2 =E,,2 =D,,2 | C4 z4 | z8 | z8 | z8 | z8 | z8 | z8 | z8 | %34
 B,,,2 B,,2 _A,,2 _G,,2 | F,,2 E,,2 D,,2 C,,2 | B,,,2 B,,2 A,,2 _G,,2 | F,,2 E,,2 D,,2 C,,2 | %38
 B,,,4 z4 | z8 | C,,2 C,2 B,,2 A,,2 | G,,2 F,,2 =E,,2 =D,,2 | C,,2 C,2 B,,2 A,,2 | %43
 G,,2 F,,2 =E,,2 =D,,2 | (C,8 | (C,8) | (C,8) | (C,8) | (C,8) | C,8) |[K:treble] z8 | z4 _e4 | %52
 d4 z4 | z4 f4 | =e4 f4 | f4 =e4 | f4 z4 | z4 _e4 | d4 z4 | z4 f4 |!f!!f! =e4 f4 | f4 =e4 | %62
!ff! f4 =e4 | f4 c4 | F4 z4 |] z8 | z8 | z8 | z8 | z8 | z8 | z8 |] %72
V:4
 z8 | z8 | z8 | z8 | z8 | z8 | z2 z2 A,2 G,2 | D,4 F2 =D2 | E4 C2 A,2 | =D4 =B,2 G,2 | %10
 C2 _B,2 A,2 G,2 | F,4 G,4 | C8 | D8 | C8 | B,8 | A,4 B,2 A,2 | G,8 | F,4 F,4 | B,,4 B,,4 | %20
 C,4 z4 | z8 | C,2 C2 B,2 A,2 | G,2 F,2 =E,2 =D,2 | C,2 C2 B,2 A,2 | G,2 F,2 =E,2 =D,2 | C,4 z4 | %27
 z8 | F,,2 F,2 _E,2 _D,2 | C,2 B,,2 =A,,2 G,,2 | F,,2 F,2 E,2 D,2 | C,2 B,,2 =A,,2 G,,2 | F,,4 z4 | %33
 z8 | B,,2 B,2 _A,2 _G,2 | F,2 E,2 D,2 C,2 | B,,2 B,2 A,2 _G,2 | F,2 E,2 D,2 C,2 | B,,4 z4 | z8 | %40
 C,2 C2 B,2 A,2 | G,2 F,2 =E,2 =D,2 | C,2 C2 B,2 A,2 | G,2 F,2 =E,2 =D,2 | (C,8 | (C,8) | (C,8) | %47
 (C,8) | (C,8) | C,8) | F,,4 z4 | z4 =A,4 | B,4 z4 | z4 =B,4 | C4 _A,4 | B,4 C4 | F,4 z4 | %57
 z4 =A,,4 | B,,4 z4 | z4 =B,,4 | C,4 _A,,4 | B,,4 C,4 | F,4 C,4 | F,4 C,4 | F,,4 z4 |] z8 | z8 | %67
 z8 | z8 | z8 | z8 | z8 |] %72

